rospo-light/16x16/actions/format-insert-node.svg

<svg height="16" viewBox="0 0 16 16" width="16" xmlns="http://www.w3.org/2000/svg"><path d="m6 3v1h-5v1h5v2h4v-2h5v-1h-5v-1zm6 5v2h-2v1h2v2h1v-2h2v-1h-2v-2z" fill="#5c616c"/></svg>

<?xml version="1.0" encoding="UTF-8" standalone="no"?>
<svg xmlns="http://www.w3.org/2000/svg" width="22" height="22" viewBox="0 0 22 22">
 <defs>
  <style type="text/css" id="current-color-scheme">
   .ColorScheme-Text { color:#5c616c; } .ColorScheme-Highlight { color:#5294e2; }
  </style>
 </defs>
 <path style="fill:currentColor;opacity:1" class="ColorScheme-Text" transform="translate(3 3)" d="M 6 3 L 6 4 L 1 4 L 1 5 L 6 5 L 6 7 L 10 7 L 10 5 L 15 5 L 15 4 L 10 4 L 10 3 L 6 3 z M 12 8 L 12 10 L 10 10 L 10 11 L 12 11 L 12 13 L 13 13 L 13 11 L 15 11 L 15 10 L 13 10 L 13 8 L 12 8 z"/>
</svg>
